images/camera.svg

<?xml version="1.0" encoding="iso-8859-1"?>
<!-- Generator: Adobe Illustrator 19.0.0, SVG Export Plug-In . SVG Version: 6.00 Build 0)  -->
<svg xmlns="http://www.w3.org/2000/svg" xmlns:xlink="http://www.w3.org/1999/xlink" version="1.1" id="Capa_1" x="0px" y="0px" viewBox="0 0 512 512" style="enable-background:new 0 0 512 512;" xml:space="preserve" width="512px" height="512px">
<g>
	<g>
		<path d="M469.333,21.333H230.4c-4.71,0-8.533,3.823-8.533,8.533v25.6h-179.2c-4.71,0-8.533,3.823-8.533,8.533v264.533    c0,4.719,3.823,8.533,8.533,8.533h426.667c4.719,0,8.533-3.814,8.533-8.533V29.867C477.867,25.156,474.052,21.333,469.333,21.333z     M460.8,320H51.2V72.533h179.2c4.71,0,8.533-3.823,8.533-8.533V38.4H460.8V320z" fill="#a4a4a4"/>
	</g>
</g>
<g>
	<g>
		<path d="M110.933,21.333h-51.2c-4.71,0-8.533,3.823-8.533,8.533V64c0,4.71,3.823,8.533,8.533,8.533h51.2    c4.71,0,8.533-3.823,8.533-8.533V29.867C119.467,25.156,115.644,21.333,110.933,21.333z M102.4,55.467H68.267V38.4H102.4V55.467z" fill="#a4a4a4"/>
	</g>
</g>
<g>
	<g>
		<path d="M25.6,157.867h17.067V140.8H25.6C11.486,140.8,0,152.286,0,166.4S11.486,192,25.6,192h17.067v-17.067H25.6    c-4.702,0-8.533-3.831-8.533-8.533C17.067,161.698,20.898,157.867,25.6,157.867z" fill="#a4a4a4"/>
	</g>
</g>
<g>
	<g>
		<path d="M486.4,140.8h-17.067v17.067H486.4c4.71,0,8.533,3.831,8.533,8.533c0,4.702-3.823,8.533-8.533,8.533h-17.067V192H486.4    c14.114,0,25.6-11.486,25.6-25.6S500.514,140.8,486.4,140.8z" fill="#a4a4a4"/>
	</g>
</g>
<g>
	<g>
		<path d="M435.2,55.467H384c-4.719,0-8.533,3.823-8.533,8.533v34.133c0,4.71,3.814,8.533,8.533,8.533h51.2    c4.719,0,8.533-3.823,8.533-8.533V64C443.733,59.29,439.919,55.467,435.2,55.467z M426.667,89.6h-34.133V72.533h34.133V89.6z" fill="#a4a4a4"/>
	</g>
</g>
<g>
	<g>
		<path d="M256,98.133c-56.465,0-102.4,45.935-102.4,102.4s45.935,102.4,102.4,102.4s102.4-45.935,102.4-102.4    S312.465,98.133,256,98.133z M256,285.867c-47.053,0-85.333-38.281-85.333-85.333S208.947,115.2,256,115.2    s85.333,38.281,85.333,85.333S303.053,285.867,256,285.867z" fill="#a4a4a4"/>
	</g>
</g>
<g>
	<g>
		<rect x="136.533" y="123.733" width="51.2" height="17.067" fill="#a4a4a4"/>
	</g>
</g>
<g>
	<g>
		<rect x="324.267" y="123.733" width="145.067" height="17.067" fill="#a4a4a4"/>
	</g>
</g>
<g>
	<g>
		<path d="M119.467,106.667c-14.114,0-25.6,11.486-25.6,25.6s11.486,25.6,25.6,25.6s25.6-11.486,25.6-25.6    S133.581,106.667,119.467,106.667z M119.467,140.8c-4.702,0-8.533-3.831-8.533-8.533c0-4.702,3.831-8.533,8.533-8.533    s8.533,3.831,8.533,8.533C128,136.969,124.169,140.8,119.467,140.8z" fill="#a4a4a4"/>
	</g>
</g>
<g>
	<g>
		<rect x="42.667" y="123.733" width="59.733" height="17.067" fill="#a4a4a4"/>
	</g>
</g>
<g>
	<g>
		<path d="M196.267,21.333h-51.2c-4.71,0-8.533,3.823-8.533,8.533V64c0,4.71,3.823,8.533,8.533,8.533h51.2    c4.71,0,8.533-3.823,8.533-8.533V29.867C204.8,25.156,200.977,21.333,196.267,21.333z M187.733,55.467H153.6V38.4h34.133V55.467z" fill="#a4a4a4"/>
	</g>
</g>
<g>
	<g>
		<path d="M159.309,216.627c-4.292,1.519-8.934,1.263-13.039-0.708c-4.113-1.971-7.202-5.427-8.721-9.728    c-1.519-4.301-1.263-8.934,0.708-13.039c1.971-4.113,5.427-7.211,9.719-8.721c3.661-1.28,7.671-1.28,11.332,0l5.658-16.102    c-7.305-2.569-15.351-2.569-22.656,0c-17.758,6.246-27.119,25.771-20.872,43.529c4.932,14.02,18.15,22.81,32.23,22.81    c3.746,0,7.569-0.623,11.307-1.937L159.309,216.627z" fill="#a4a4a4"/>
	</g>
</g>
<g>
	<g>
		<path d="M401.067,183.467c-14.114,0-25.6,11.486-25.6,25.6c0,14.114,11.486,25.6,25.6,25.6c14.114,0,25.6-11.486,25.6-25.6    C426.667,194.953,415.181,183.467,401.067,183.467z M401.067,217.6c-4.71,0-8.533-3.831-8.533-8.533    c0-4.702,3.823-8.533,8.533-8.533s8.533,3.831,8.533,8.533C409.6,213.769,405.777,217.6,401.067,217.6z" fill="#a4a4a4"/>
	</g>
</g>
<g>
	<g>
		<path d="M401.067,157.867c-4.719,0-8.533,3.823-8.533,8.533V192c0,4.71,3.814,8.533,8.533,8.533c4.719,0,8.533-3.823,8.533-8.533    v-25.6C409.6,161.69,405.786,157.867,401.067,157.867z" fill="#a4a4a4"/>
	</g>
</g>
<g>
	<g>
		<path d="M256,132.267c-37.641,0-68.267,30.626-68.267,68.267c0,37.641,30.626,68.267,68.267,68.267    c37.641,0,68.267-30.626,68.267-68.267C324.267,162.893,293.641,132.267,256,132.267z M256,251.733    c-28.237,0-51.2-22.963-51.2-51.2c0-28.237,22.963-51.2,51.2-51.2s51.2,22.963,51.2,51.2    C307.2,228.77,284.237,251.733,256,251.733z" fill="#a4a4a4"/>
	</g>
</g>
<g>
	<g>
		<rect x="42.667" y="268.8" width="162.133" height="17.067" fill="#a4a4a4"/>
	</g>
</g>
<g>
	<g>
		<rect x="307.2" y="268.8" width="162.133" height="17.067" fill="#a4a4a4"/>
	</g>
</g>
<g>
	<g>
		<rect x="162.133" y="89.6" width="25.6" height="17.067" fill="#a4a4a4"/>
	</g>
</g>
<g>
	<g>
		<path d="M494.933,166.4v187.733c0,9.412-7.654,17.067-17.067,17.067h-281.6c-18.825,0-34.133,15.309-34.133,34.133    c0,18.825,15.309,34.133,34.133,34.133h204.8c9.412,0,17.067,7.654,17.067,17.067c0,9.412-7.654,17.067-17.067,17.067H34.133    c-9.412,0-17.067-7.654-17.067-17.067V166.4H0v290.133c0,18.825,15.309,34.133,34.133,34.133h366.933    c18.825,0,34.133-15.309,34.133-34.133c0-18.825-15.309-34.133-34.133-34.133h-204.8c-9.412,0-17.067-7.654-17.067-17.067    c0-9.412,7.654-17.067,17.067-17.067h281.6c18.825,0,34.133-15.309,34.133-34.133V166.4H494.933z" fill="#a4a4a4"/>
	</g>
</g>
<g>
</g>
<g>
</g>
<g>
</g>
<g>
</g>
<g>
</g>
<g>
</g>
<g>
</g>
<g>
</g>
<g>
</g>
<g>
</g>
<g>
</g>
<g>
</g>
<g>
</g>
<g>
</g>
<g>
</g>
</svg>

<svg width="512" height="512" viewBox="0 0 512 512" fill="none" xmlns="http://www.w3.org/2000/svg">
<path d="M469.333 21.333H230.4C225.69 21.333 221.867 25.156 221.867 29.866V55.466H42.667C37.957 55.466 34.134 59.289 34.134 63.999V328.532C34.134 333.251 37.957 337.065 42.667 337.065H469.334C474.053 337.065 477.867 333.251 477.867 328.532V29.867C477.867 25.156 474.052 21.333 469.333 21.333ZM460.8 320H51.2V72.533H230.4C235.11 72.533 238.933 68.71 238.933 64V38.4H460.8V320Z" fill="#E4C51D"/>
<path d="M110.933 21.333H59.733C55.023 21.333 51.2 25.156 51.2 29.866V64C51.2 68.71 55.023 72.533 59.733 72.533H110.933C115.643 72.533 119.466 68.71 119.466 64V29.867C119.467 25.156 115.644 21.333 110.933 21.333ZM102.4 55.467H68.2669V38.4H102.4V55.467Z" fill="#E4C51D"/>
<path d="M25.6 157.867H42.667V140.8H25.6C11.486 140.8 0 152.286 0 166.4C0 180.514 11.486 192 25.6 192H42.667V174.933H25.6C20.898 174.933 17.067 171.102 17.067 166.4C17.067 161.698 20.898 157.867 25.6 157.867Z" fill="#E4C51D"/>
<path d="M486.4 140.8H469.333V157.867H486.4C491.11 157.867 494.933 161.698 494.933 166.4C494.933 171.102 491.11 174.933 486.4 174.933H469.333V192H486.4C500.514 192 512 180.514 512 166.4C512 152.286 500.514 140.8 486.4 140.8Z" fill="#E4C51D"/>
<path d="M435.2 55.467H384C379.281 55.467 375.467 59.29 375.467 64V98.133C375.467 102.843 379.281 106.666 384 106.666H435.2C439.919 106.666 443.733 102.843 443.733 98.133V64C443.733 59.29 439.919 55.467 435.2 55.467ZM426.667 89.6H392.534V72.533H426.667V89.6Z" fill="#E4C51D"/>
<path d="M256 98.1331C199.535 98.1331 153.6 144.068 153.6 200.533C153.6 256.998 199.535 302.933 256 302.933C312.465 302.933 358.4 256.998 358.4 200.533C358.4 144.068 312.465 98.1331 256 98.1331ZM256 285.867C208.947 285.867 170.667 247.586 170.667 200.534C170.667 153.482 208.947 115.2 256 115.2C303.053 115.2 341.333 153.481 341.333 200.533C341.333 247.585 303.053 285.867 256 285.867Z" fill="#E4C51D"/>
<path d="M187.733 123.733H136.533V140.8H187.733V123.733Z" fill="#E4C51D"/>
<path d="M469.334 123.733H324.267V140.8H469.334V123.733Z" fill="#E4C51D"/>
<path d="M119.467 106.667C105.353 106.667 93.8669 118.153 93.8669 132.267C93.8669 146.381 105.353 157.867 119.467 157.867C133.581 157.867 145.067 146.381 145.067 132.267C145.067 118.153 133.581 106.667 119.467 106.667ZM119.467 140.8C114.765 140.8 110.934 136.969 110.934 132.267C110.934 127.565 114.765 123.734 119.467 123.734C124.169 123.734 128 127.565 128 132.267C128 136.969 124.169 140.8 119.467 140.8Z" fill="#E4C51D"/>
<path d="M102.4 123.733H42.667V140.8H102.4V123.733Z" fill="#E4C51D"/>
<path d="M196.267 21.333H145.067C140.357 21.333 136.534 25.156 136.534 29.866V64C136.534 68.71 140.357 72.533 145.067 72.533H196.267C200.977 72.533 204.8 68.71 204.8 64V29.867C204.8 25.156 200.977 21.333 196.267 21.333ZM187.733 55.467H153.6V38.4H187.733V55.467Z" fill="#E4C51D"/>
<path d="M159.309 216.627C155.017 218.146 150.375 217.89 146.27 215.919C142.157 213.948 139.068 210.492 137.549 206.191C136.03 201.89 136.286 197.257 138.257 193.152C140.228 189.039 143.684 185.941 147.976 184.431C151.637 183.151 155.647 183.151 159.308 184.431L164.966 168.329C157.661 165.76 149.615 165.76 142.31 168.329C124.552 174.575 115.191 194.1 121.438 211.858C126.37 225.878 139.588 234.668 153.668 234.668C157.414 234.668 161.237 234.045 164.975 232.731L159.309 216.627Z" fill="#E4C51D"/>
<path d="M401.067 183.467C386.953 183.467 375.467 194.953 375.467 209.067C375.467 223.181 386.953 234.667 401.067 234.667C415.181 234.667 426.667 223.181 426.667 209.067C426.667 194.953 415.181 183.467 401.067 183.467ZM401.067 217.6C396.357 217.6 392.534 213.769 392.534 209.067C392.534 204.365 396.357 200.534 401.067 200.534C405.777 200.534 409.6 204.365 409.6 209.067C409.6 213.769 405.777 217.6 401.067 217.6Z" fill="#E4C51D"/>
<path d="M401.067 157.867C396.348 157.867 392.534 161.69 392.534 166.4V192C392.534 196.71 396.348 200.533 401.067 200.533C405.786 200.533 409.6 196.71 409.6 192V166.4C409.6 161.69 405.786 157.867 401.067 157.867Z" fill="#E4C51D"/>
<path d="M256 132.267C218.359 132.267 187.733 162.893 187.733 200.534C187.733 238.175 218.359 268.801 256 268.801C293.641 268.801 324.267 238.175 324.267 200.534C324.267 162.893 293.641 132.267 256 132.267ZM256 251.733C227.763 251.733 204.8 228.77 204.8 200.533C204.8 172.296 227.763 149.333 256 149.333C284.237 149.333 307.2 172.296 307.2 200.533C307.2 228.77 284.237 251.733 256 251.733Z" fill="#E4C51D"/>
<path d="M204.8 268.8H42.667V285.867H204.8V268.8Z" fill="#E4C51D"/>
<path d="M469.333 268.8H307.2V285.867H469.333V268.8Z" fill="#E4C51D"/>
<path d="M187.733 89.6001H162.133V106.667H187.733V89.6001Z" fill="#E4C51D"/>
<path d="M494.933 166.4V354.133C494.933 363.545 487.279 371.2 477.866 371.2H196.266C177.441 371.2 162.133 386.509 162.133 405.333C162.133 424.158 177.442 439.466 196.266 439.466H401.066C410.478 439.466 418.133 447.12 418.133 456.533C418.133 465.945 410.479 473.6 401.066 473.6H34.133C24.721 473.6 17.066 465.946 17.066 456.533V166.4H0V456.533C0 475.358 15.309 490.666 34.133 490.666H401.066C419.891 490.666 435.199 475.357 435.199 456.533C435.199 437.708 419.89 422.4 401.066 422.4H196.266C186.854 422.4 179.199 414.746 179.199 405.333C179.199 395.921 186.853 388.266 196.266 388.266H477.866C496.691 388.266 511.999 372.957 511.999 354.133V166.4H494.933Z" fill="#E4C51D"/>
</svg>
